X:640
T: GUTEN ABE VRENELI
N: E0590
O: Europa, Mitteleuropa, Schweiz
R: Liebes - Lied, Kilt - Lied
M: 2/4
L: 1/16
K: A
 | A3ce2c2 | c2B2B4 |
B3df2d2 | d2c2c4 |
A3ce2c2 | c2B2B4 |
d2G2A2G2 | A4z4

@@@ Tune index: 4290
